Newaita-dark/actions/16/document-open.svg

<svg height="16" viewBox="0 0 16 16" width="16" xmlns="http://www.w3.org/2000/svg"><g fill="#e0e0e0"><path d="m7.277344 4.09375h1.324218v4.953125c0 .183594-.148437.332031-.332031.332031h-.660156c-.183594 0-.332031-.148437-.332031-.332031zm0 0"/><path d="m10.253906 4.753906h-4.632812l2.316406-3.304687zm0 0"/><path d="m2.644531 10.046875v3.308594c0 .734375.589844 1.324219 1.320313 1.324219h7.9375c.734375 0 1.324218-.589844 1.324218-1.324219v-3.308594h-1.324218v2.648437c0 .363282-.292969.660157-.660156.660157h-6.613282c-.367187 0-.664062-.296875-.664062-.660157v-2.648437zm0 0"/></g></svg>

<?xml version="1.0" encoding="UTF-8"?>
<svg xmlns="http://www.w3.org/2000/svg" xmlns:xlink="http://www.w3.org/1999/xlink" width="16px" height="16px" viewBox="0 0 16 16" version="1.1">
<g id="surface1">
<path style=" stroke:none;fill-rule:nonzero;fill:rgb(87.843138%,87.843138%,87.843138%);fill-opacity:1;" d="M 7.277344 4.09375 L 8.601562 4.09375 L 8.601562 9.046875 C 8.601562 9.230469 8.453125 9.378906 8.269531 9.378906 L 7.609375 9.378906 C 7.425781 9.378906 7.277344 9.230469 7.277344 9.046875 Z M 7.277344 4.09375 "/>
<path style=" stroke:none;fill-rule:nonzero;fill:rgb(87.843138%,87.843138%,87.843138%);fill-opacity:1;" d="M 10.253906 4.753906 L 5.621094 4.753906 L 7.9375 1.449219 Z M 10.253906 4.753906 "/>
<path style=" stroke:none;fill-rule:nonzero;fill:rgb(87.843138%,87.843138%,87.843138%);fill-opacity:1;" d="M 2.644531 10.046875 L 2.644531 13.355469 C 2.644531 14.089844 3.234375 14.679688 3.964844 14.679688 L 11.902344 14.679688 C 12.636719 14.679688 13.226562 14.089844 13.226562 13.355469 L 13.226562 10.046875 L 11.902344 10.046875 L 11.902344 12.695312 C 11.902344 13.058594 11.609375 13.355469 11.242188 13.355469 L 4.628906 13.355469 C 4.261719 13.355469 3.964844 13.058594 3.964844 12.695312 L 3.964844 10.046875 Z M 2.644531 10.046875 "/>
</g>
</svg>
